X:1
T:Tullochgorum
M:4/4
R:strathspey
C:variations by J. Scott Skinner
S:https://maestronet.com/forum/index.php?/topic/314888-cape-breton-fiddle/
K:C
BG c>FA>c|BG B>cdG c>FA>c|BG c2 B>A|
Ge f>F A2|G>gde f>F A2|G>gdA|
Ge f>F A2|Ge f>cf>g|a/g/f/e/ f>d c>FAdg>b e>gd
B>G B/c/d/B/ c>F A/B/c/A/|B>G B/c/d/B/ g>G B/c/d/c/|B>G B/c/d/B/ c>F A/B/c/A/|(3Bcd (3e^fg c2 B>A|
G>g a/g/f/e/ f>F d/c/B/A/|G>gdg a/g/f/e/ f>F d/c/B/A/|G>g dA|
G>g a/g/f/e/ f>F d/c/B/A/|G>g a/g/f/e/ f>cf>g|a/g/f/e/ g/f/e/d/ c>FA>a|g>dg>b e>gd
(3BGG (3dGG (3cFF (3Acc|(3BGG (3dGG (3eGG (3dGG|(3gGG (3dGG (3cFF (3Acc|(3BGG (3dGG c2 B>A|
(3Ggg (3dgg (3cFF (3Acc|(3Ggg (3dgg (3Bgg (3dgg|(3G,gg (3dgg(3cFF (3cAA|(3Ggg (3dgg c2 B>A|
(3Ggg (3dgg (3cFF (3Acc|(3Ggg (3dgg (3fcc f>g|(3agf (3efd (3cFF (3Aaa|(3gdd (3gbb (3egg (3dgg||
B>GD>B, C>B,A,>C|B,>G,D>G, E>G,D>G,|G>G,D>G, C>B,A,>C|B,>G,D>G, C2 B,>G,|
(3Ggg (3dgg cA|
G>g a/g/f/e/ f>F A/B/c/A/|G,>gd>e f>cf>g|a/g/f/e/ g/f/e/d/ c>FA>a|g>dg>b e>gd
B/G/G/G/ d/G/G/G/ c/F/F/F/ A/c/c/c/|B/G/G/G/ d/G/G/G/ e/G/G/G/ d/G/G/G/|g/G/G/G/ d/G/G/G/ c/F/F/F/ A/c/c/c/|B/G/G/G/ d/G/G/G/ c2 B>A|
G,/g/g/g/ d/g/g/g/ c/F/F/F/ c/A/A/A/|G,/g/g/g/ d/g/g/g/ B/g/g/g/ d/g/g/g/|G,/g/g/g/ d/g/g/g/ c/F/F/F/ c/A/A/A/|G,/g/g/g/ d/g/g/g/ c2 B>a|
G,/g/g/g/ d/g/g/g/ c/F/F/F/ c/A/A/A/|G,/g/g/g/ d/g/g/g/ f>cf>g|a/g/f/e/ g/f/e/d/ c>FA>a|g>dg>b e>gd
B>GD>B, C>B,A,>C|B,>G,D>F g>G,D>^f|g>G,D>G, C>B,A,>C|(3B,CD (3E^FG C2 B,>A,|
G/g/^f/g/ d/g/f/g/ =f>F A2|G,/g/^f/g/ d/g/f/g/ B/g/f/g/ d/g/f/g/|G/g/^f/g/ d/g/f/g/ c>=F A2|G/g/^f/g/ d/g/f/g/ c2 B>A|
G/g/^f/g/ a/g/=f/e/ f>F A2|Ge f>cf>g|a/g/f/e/ g/f/e/d/ c>FA>a|g>dg>b e>gd
B/B/G/G/ D/D/B,/B,/ C/C/B,/B,/ A,/A,/C/C/|B,/B,/G,/G,/ D/D/^f/f/ g/g/G,/G,/ D/D/f/f/|g/g/G,/G,/ D/D/G,/G,/ C/C/B,/B,/ A,/A,/C/C/|B,/B,/G,/G,/ D/D/G,/G,/ C2 B,>A,|
G,/G/g/g/ d/d/e/e/ f/f/F/F/ c/c/A/A/|G/G/g/g/ d/d/g/g/ B/B/g/g/ d/d/g/g/|G,/G,/g/g/ d/d/e/e/ f/f/F/F/ c/c/A/A/|G,/G,/g/g/ d/d/g/g/ c2 B>A|
G,/G,/g/g/ d/d/e/e/ f/f/F/F/ c/c/A/A/|G/G/g/g/ d/d/e/e/ f/f/g/g/ a/a/g/g/|f/f/e/e/ f/f/d/d/ c/c/F/F/ A/A/a/a/|g/g/d/d/ g/g/b/b/ e/e/g/g/ d/d/g/g/||
BG c>FA>c|BG B>cdG c>FA>c|BG c2 B>A|
Ge f>F A2|G>gde f>F A2|G>gdA|
Ge f>F A2|Ge f>cf>g|a/g/f/e/ f>d c>FA
